libs/ui/packages/crypto-icons/src/svg/NMC.svg

<svg width="24" height="24" viewBox="0 0 24 24" fill="none">
<path d="M14.4457 17.625L14.4465 17.6235C14.5621 17.6258 14.6776 17.6132 14.79 17.586C15.447 17.4323 16.0028 16.8585 16.1348 16.239L18.75 6.417L16.671 6.4065L14.9565 12.8325L10.3215 6.38475L10.3185 6.38775L10.3207 6.38025L9.555 6.375V6.37575C9.43918 6.37396 9.32358 6.3863 9.21075 6.4125C8.5545 6.567 7.99875 7.14075 7.866 7.7595L5.25 17.5837L7.32975 17.5928L9.0435 11.1667L13.6785 17.6152H13.6807L14.4457 17.625ZM9.501 9.4545L9.86325 8.097L14.499 14.5463L14.1368 15.9037L9.50175 9.45375L9.501 9.4545Z" fill="#186C9D"/>
</svg>

<svg width="24" height="24" viewBox="0 0 24 24" fill="none"><path fill="#186c9d" d="M14.446 17.625v-.002q.175.004.344-.037c.657-.154 1.213-.727 1.345-1.347l2.615-9.822-2.079-.01-1.714 6.426-4.635-6.448-.003.003.002-.008-.766-.005a1.4 1.4 0 0 0-.344.037c-.656.155-1.212.729-1.345 1.348L5.25 17.584l2.08.009 1.713-6.426 4.636 6.448h.002zM9.5 9.455l.362-1.358 4.636 6.45-.362 1.357-4.635-6.45z"/></svg>
